X:1
T:O Sacrum Convivium
T:Franz Liszt (1885)
T:O Sacrum Convivium
T:Copyright © 2015 by CPDL.  This edition can be fully distributed, duplicated, performed, and recorded.
T:Copyright © 2015 by CPDL.  This edition can be fully distributed, duplicated, performed, and recorded.
T:Copyright © 2015 by CPDL.  This edition can be fully distributed, duplicated, performed, and recorded.
T:Copyright © 2015 by CPDL.  This edition can be fully distributed, duplicated, performed, and recorded.
T:Copyright © 2015 by CPDL.  This edition can be fully distributed, duplicated, performed, and recorded.
T:Copyright © 2015 by CPDL.  This edition can be fully distributed, duplicated, performed, and recorded.
T:Copyright © 2015 by CPDL.  This edition can be fully distributed, duplicated, performed, and recorded.
T:Copyright © 2015 by CPDL.  This edition can be fully distributed, duplicated, performed, and recorded.
T:Copyright © 2015 by CPDL.  This edition can be fully distributed, duplicated, performed, and recorded.
T:Copyright © 2015 by CPDL.  This edition can be fully distributed, duplicated, performed, and recorded.
C:Franz Liszt (1885)
Z:Copyright © 2015 by CPDL.  This edition can be fully distributed, duplicated, performed, and recorded.
%%score [ ( 1 2 ) ( 3 4 ) ] { ( 5 7 ) | ( 6 8 ) }
L:1/8
Q:1/2=68
M:4/2
K:E
V:1 treble nm="Alto Solo" snm="A. Solo"
V:2 treble 
V:3 treble nm="SA Choir" snm="A."
V:4 treble 
V:5 treble nm="Organ" snm="Org."
V:7 treble 
V:6 bass 
V:8 bass 
V:1
 z4 | z16 | z16 | z16 | z16 | z16 | z4!p! E4 (F4 G4-) | G4 (D2 E2) ^E4 F4- | F4 (D2 E2) (F8 | %9
w: ||||||O sa- *|* crum _ con- vi-|* vi- * um,|
 E4) z4 z8 | z4!p! E4 (F4 G4-) | G4 (D2 E2) ^E4 F4- | F4 (D2 E2) (F8 | E4) z4 z8 | z16 | %15
w: _|O sa- *|* crum _ con- vi-|* vi- * um,|_||
 z8 z4!p! G4 | (^A4 B4-) B4 (^^F2 G2) | ^^G4 ^A8 (^^F2 ^G2) | (^A8 G4) z4 | z8 z4!p! G4 | %20
w: O|sa- * * crum _|con- vi- vi- *|um, _|O|
 (^A4 B4-) B4 (^^F2 G2) | ^^G4 ^A8 (^^F2 ^G2) | (^A8 G4) z4 | z8 z4 D4 | (D4 G4) G8- | G8 ^E8 | %26
w: sa- * * crum _|con- vi- vi- *|um, _|in|quo _ Chri-|* stus|
 C6 C2 C8- | C8 z8 | z16 | z4 C4 A6 A2 | A4 A4 B6 A2 | (A4 ^E4) (C8 | =D4 C8) B,4 | %33
w: su- mi- tur,|_||re- co- li-|tur me- mo- ri-|a, _ pas-|* * si-|
 (C4 =D4) (C4 D2) z2 | ^D6 E2 x8 | (=D4 C4) B,4 z4 | z4!p! B,8 B,4 | (=C8 =D4 C4 | %38
w: o- * nis, _|_ _|e- * jus,|pas- si-|o- * *|
 B,4 A,4) (B,4 =C2) z2 | ^C16 | B,4 z4 !fermata!z8 ||[K:G] z16 | z16 | z16 | z8 z4!p! (G4 | %45
w: * * nis _|e-|jus.||||Mens|
 A4) B4 B4 (F2 G2) | (^G4 A8) (F2 =G2) | (A8 G4) z4 | z8 z4 G4 | (A4 B8) (F2 G2) | %50
w: _ im- ple- tur _|gra- * ti- *|a, _|im-|ple- * tur _|
 (^G4 A8) (F2 =G2) | (A8 G4) z4 | z2 D4 D2!<(! (E2 F2) (G2!<)! A2) | !>!B6 B2 (B4 G4) | %54
w: gra- * ti- *|a, _|et fu- tu- * rae _|glo- ri- ae, _|
 z2 D4 D2!<(! (E2 F2) (G2!<)! A2) | !>!B8 F4 z4 ||[K:E] z2!mf! B,4 B,2!<(! (C2 D2) (E2!<)! F2) | %57
w: no- bis pi- * gnus _|da- tur.|et fu- tu- * rae _|
 !>!G6 G2 (G4 D4) | z2 B,4 B,2!<(! (C2 D2) (E2!<)! F2) | !>!G8 E4 z4 | z16 | z16 | z16 | %63
w: glo- ri- ae, _|no- bis pi- * gnus _|da- tur.||||
 z4!p! B4 (A4 G4-) | G4 (D2 E2) ^E4 F4- | F4 (D2 E2) (F8 | E4) z4 z8 | z4 B4 (A4 G4-) | %68
w: O sa- *|* crum _ con- vi-|* vi- * um,|_|O sa- *|
 G4 (D2 E2) ^E4 F4- | F4 (D2 E2) (F8 | E4) z4 z4 E4 | c8 B4 A4 | G6 F2 E2 z2 E4 | A8 G4 F4 | %74
w: * crum _ con- vi-|* vi- * um,|_ O|sa- crum con-|vi- vi- um, O|sa- crum con-|
 E6 D2 C8 |"^un poco rit." z8 z4 ^B,4 | C8 C4 C4 | E12 D4 | (C8 =B,8) | z16 | z16 | z16 | z16 | %83
w: vi- vi- um,|O|sa- crum con-|vi- vi-|um, _|||||
 z16 | z16 | z16 |] %86
w: |||
V:2
 x4 | x16 | x16 | x16 | x16 | x16 | x16 | x16 | x16 | x16 | x16 | x16 | x16 | x16 | x16 | x16 | %16
w: ||||||||||||||||
 x16 | x16 | x16 | x16 | x16 | x16 | x16 | x16 | x16 | x16 | x16 | x16 | x16 | x16 | x16 | x16 | %32
w: ||||||||||||||||
 x16 | x16 | =F6 F2 F4 E4 | x16 | x16 | x16 | x16 | x16 | x16 ||[K:G] x16 | x16 | x16 | x16 | x16 | %46
w: ||pas- si- o- nis||||||||||||
 x16 | x16 | x16 | x16 | x16 | x16 | x16 | x16 | x16 | x16 ||[K:E] x16 | x16 | x16 | x16 | x16 | %61
w: |||||||||||||||
 x16 | x16 | x16 | x16 | x16 | x16 | x16 | x16 | x16 | x16 | x16 | x16 | x16 | x16 | x16 | x16 | %77
w: ||||||||||||||||
 x16 | x16 | x16 | x16 | x16 | x16 | x16 | x16 | x16 |] %86
w: |||||||||
V:3
 z4 | z16 | z16 | z16 | z16 | z16 | z16 | z16 | z16 | z16 | z4!p! E4 (F4 G4-) | %11
w: ||||||||||O sa- *|
 G4 (D2 E2) ^E4 F4- | F4 (D2 E2) (F8 | E4) z4 z8 | z16 | z16 | z16 | z16 | z16 | z8 z4!p! G4 | %20
w: * crum _ con- vi-|* vi- * um,|_||||||O|
 (^A4 B4-) B4 (^^F2 G2) | ^^G4 ^A8 (^^F2 ^G2) | (^A8 G4) z4 | z16 | z16 | z16 | z8!pp! z4 C4- | %27
w: sa- * * crum _|con- vi- vi- *|um, _||||Chri-|
 C4 C4 C6 C2 | C8 z8 | z16 | z16 | z8 z4 C4 | =D4 C2 C2 C4 B,4 | (C4 =D4) (C4 D2) z2 | ^D6 E2 x8 | %35
w: * stus su- mi-|tur,|||re-|co- li- tur me- mo-|ri- * a, _|_ _|
 (=D4 C4) B,4 z4 | z16 | z16 | z16 | z16 | z16 ||[K:G] z16 | z16 | z16 | z16 | z16 | z16 | z16 | %48
w: e- * jus,|||||||||||||
 z8 G4 G4 | (A4 B8) (F2 G2) | (^G4 A8) (F2 =G2) | (A8 G4) z4 | z16 | z16 | z16 | z16 || %56
w: mens im-|ple- * tur _|gra- * ti- *|a, _|||||
[K:E] z2!mf! B,4 B,2!<(! (C2 D2) (E2!<)! F2) | !>!G6 G2 (G4 D4) | %58
w: et fu- tu- * rae _|glo- ri- ae, _|
 z2 B,4 B,2!<(! (C2 D2) (E2!<)! F2) | !>!G8 E4 z4 | z16 | z16 | z16 | z16 | z16 | z16 | z16 | %67
w: no- bis pi- * gnus _|da- tur.||||||||
 z4 B4 (A4 G4-) | G4 (D2 E2) ^E4 F4- | F4 (D2 E2) (F8 | E4) z4 z8 | z16 | z16 | z16 | z16 | %75
w: O sa- *|* crum _ con- vi-|* vi- * um,|_|||||
 z8 z4 ^B,4 | C8 C4 C4 | E12 D4 | (C8 =B,8) | z16 | z16 | z16 | z16 | z16 | z16 | z16 |] %86
w: O|sa- crum con-|vi- vi-|um, _||||||||
V:4
 x4 | x16 | x16 | x16 | x16 | x16 | x16 | x16 | x16 | x16 | x16 | x16 | x16 | x16 | x16 | x16 | %16
w: ||||||||||||||||
 x16 | x16 | x16 | x16 | x16 | x16 | x16 | x16 | x16 | x16 | x16 | x16 | x16 | x16 | x16 | x16 | %32
w: ||||||||||||||||
 x16 | x16 | =F6 F2 F4 E4 | x16 | x16 | x16 | x16 | x16 | x16 ||[K:G] x16 | x16 | x16 | x16 | x16 | %46
w: ||pas- si- o- nis||||||||||||
 x16 | x16 | x16 | x16 | x16 | x16 | x16 | x16 | x16 | x16 ||[K:E] x16 | x16 | x16 | x16 | x16 | %61
w: |||||||||||||||
 x16 | x16 | x16 | x16 | x16 | x16 | x16 | x16 | x16 | x16 | x16 | x16 | x16 | x16 | x16 | x16 | %77
w: ||||||||||||||||
 x16 | x16 | x16 | x16 | x16 | x16 | x16 | x16 | x16 |] %86
w: |||||||||
V:5
!p! (G,4 | B,2 !courtesy!^A,2 C2 B,2 !courtesy!=D6 C2 | ^D2) z2 (G,4 B,2 !courtesy!^A,2 C2 B,2 | %3
 ^D6 C2 E2) z2 z2 (B,2 | D6 C2 E2) z2 (G,4 | C6 ^A,2 B,4) z4 | %6
"^dolce sempre legato" z4!p! E4 F4 G4- | G4 D2 E2 ^E4 F4- | F4 D2 E2 F8 | %9
 E2 z2 z2 (B,2 C2 B,2 D2 C2 | E2) z2 E4 F4 G4- | G4 D2 E2 ^E4 F4- | F4 D2 E2 F8 | %13
 E2 z2 z2!p! (B,2 C2 B,2 D2 C2 | E6 D2 F4 E4 | D4 G4) z4 G4 | ^A4 B8 ^^F2 G2 | ^^G4 ^A8 ^^F2 ^G2 | %18
 ^A8 G2 z2 z2 (D2 | E2 D2 F2 E2 G2) z2!p! G4 | ^A4 B8 ^^F2 G2 | ^^G4 ^A8 ^^F2 ^G2 | %22
 ^A8 G2 z2 z2 (D2 | E2 D2 F2 E2 G2) z2 z4 | z8!pp! [^EG-]8 | [^EG]8 [EG]8 | ^E8 E2 C2 z2 C2 | %27
 z2 .[CD]2 z2 .[C^E]2 z2 .C2 z2 .[CD]2 | z2 .[C^E]2 z2 .[CE]2 z2 .[CE]2 z2 .[CE]2 | %29
 z2 .[C^E]2 z2 .[CE]2 [EA-]8 | [^EA]8 [EB]8 | [^EA]8 E2 C2 z2 [CE]2 | %32
 z2 .[=DG]2 z2 .[^EA]2 z2 [CE]2 z2 .[DG]2 | z2 .[^EA]2 z2 .[EA]2 z2 .[EA]2 z2 .[EA]2 | z16 | z16 | %36
 z16 | z16 | z16 | z16 | z16 ||[K:G] z4!p! (B,4 D2 ^C2 E2 D2 | =F6 E2 ^F4) z4 | %43
 z4 (B,4 D2 ^C2 E2 D2 | ^F6 E2 G2) z2!p! G4 | A4 B8 F2 G2 | ^G4 A8 F2 =G2 | A8 G2 z2 (D4 | %48
 E2 D2 F2 E2 G4) G4 | A4 B8 F2 G2 | ^G4 A8 F2 =G2 | A8 G2 z2 z4 | z16 |!p! z4 (d4 e2 f2 g2 a2 | %54
 b2) z2 z4 z8 | z4 (f4 ^d2 f2 ^g2 =a2 ||[K:E] b2) z2 z4 z8 |!mf! z4 (B4 c2 d2 e2 f2 | %58
 g2) z2 z4 z8 | z2 (B2 c2 d2 e2 f2 g2 b2 | g2 f2 e2 f2"^dim." e2 c2 B2 c2 | B2 G2 F4 G4 E2) z2 | %62
 z4!p! (D4 E4 C2) z2 | z4!p! B4 [FA]4 [EG]4- | [EG]4 D2 E2 ^E4 F4- | F4 D2 E2 F8 | %66
 E2 z2 (B,4 C2 B,2 D2 C2 | E2) z2 B4 [FA]4 [EG]4- | [EG]4 D2 E2 ^E4 F4- | F4 D2 E2 F8 | %70
 E2 z2 z4 (G2 F2 E2 D2 | [CE]8-) [CE]2 z2 z4 | z8 (E2 D2 C2 B,2 | [A,C]8-) [A,C]2 z2 z4 | z16 | %75
 z8 [A,^B,]8 | [G,C]8 [G,C]8 | [G,E]8- [G,E]2 z2 z4 | z16 | z4!pp! (B,4 ^B,6 D2) | [G,C]8 [G,C]8 | %81
 (E12 D4 | C8 B,8) | z4 (B,4 ^^F,4 G,4 | C12 ^A,4 | !fermata!B,16) |] %86
V:6
 z4 |"^suggested accidentals to conform with ms. 41 - 44" z16 | z16 |!pp! z16 | z16 | z16 | %6
 z4 G,4 A,4 ^A,4 | B,4 G,4 A,6 G,2 | A,2 B,2 A,4 G,8- | G,2 z2 z4 z8 | z4 G,4 A,4 ^A,4 | %11
 B,4 G,4 A,6 G,2 | A,2 B,2 A,4 G,8- | G,2 z2 z4 z8 | z16 | z8 z4 B,4 | C4 ^^C4 D4 B,4 | %17
 C6 ^B,2 C2 D2 C4 | B,8- B,2 z2 z4 | z8 z4 B,4 | C4 ^^C4 D4 B,4 | C6 ^B,2 C2 D2 C4 | %22
 B,8- B,2 z2 z4 | z16 | z8 [C,,C,]8- | [C,,C,]4 z4 z8 | z8 z4 ^E,4 | F,4 G,4 ^E,4 F,4 | %28
 G,4 A,4 G,4 A,4 | B,4 A,4 [C,,C,]8- | [C,,C,]4 z4 z8 | z8 z4 A,4 | B,4 C4 A,4 B,4 | C4 =D4 C4 D4 | %34
 ^D6 E2 =F4 E4 | =D4 C4 B,4 z4 | z16 | z16 | z16 | z16 | z16 ||[K:G] z16 | z16 | z16 | z8 z4 B,4 | %45
 C4 ^C4 D4 B,4 | C6 B,2 C2 D2 C4 | B,8- B,2 z2 z4 | z8 z4 B,4 | C4 ^C4 D4 B,4 | C6 B,2 C2 D2 C4 | %51
 B,8- B,2 z2 z4 | z16 | [DGB]8- [DGB]4 z4 | z16 | [^DFB]8- [DFB]4 z4 ||[K:E] z16 | %57
 [B,DG]8- [B,DG]4 z4 | z16 | [B,EG]8- [B,EG]4 z4 | z16 | z16 | z16 | z4 G,4 A,4 ^A,4 | %64
 B,4 G,4 A,6 G,2 | A,2 B,2 A,4 G,8- | G,2 z2 z4 z8 | z4 G,4 A,4 ^A,4 | B,4 G,4 A,6 G,2 | %69
 A,2 B,2 A,4 G,8- | G,2 z2 z4 z8 | [F,A,]8- [F,A,]2 z2 z4 | z16 | [F,,E,]8- [F,,E,]2 z2 z4 | z16 | %75
"^un poco rit." z8 [F,,E,]8 | [G,,E,]8 [^A,,E,]8 | [B,,E,]8- [B,,E,]2 z2 z4 | z16 | z8 [F,,E,]8 | %80
 [G,,E,]8 [^A,,E,]8 | [B,,E,]8- [B,,E,]2 z2 z4 |"^perdendo" z16 | z16 | z16 | z16 |] %86
V:7
 x4 | x16 | x16 | x16 | x16 | x16 | x4 B,4 C4 E4- | E4 B,4 C8- | C4 C4 B,8- | B,2 x14 | %10
 x4 B,4 C4 E4- | E4 B,4 C8- | C4 C4 B,8- | B,2 x14 | x16 | x12 D4 | E4 G8 D4 | E12 E4 | D8- D2 x6 | %19
 x12 D4 | E4 G8 D4 | E12 E4 | D8- D2 x6 | x16 | x8 ^E2 C2 G,2 C2 | ^E2 C2 G,2 C2 E2 C2 G,2 C2 | %26
 ^E2 C2 G,2 C2 x8 | x16 | x16 | x8 ^E2 C2 A,2 C2 | ^E2 C2 A,2 C2 E2 C2 A,2 C2 | ^E2 C2 A,2 C2 x8 | %32
 x16 | x16 | x16 | x16 | x16 | x16 | x16 | x16 | x16 ||[K:G] x16 | x16 | x16 | x12 D4 | E4 G8 D4 | %46
 E12 E4 | D8- D2 x6 | x12 D4 | E4 G8 D4 | E12 E4 | D8- D2 x6 | x16 | x16 | x16 | x16 ||[K:E] x16 | %57
 x16 | x16 | x16 | x16 | x16 | x16 | x4 E4 C6 z2 | x4 B,4 C8- | C4 C4 B,8- | B,2 x14 | %67
 x4 E4 C6 z2 | x4 B,4 C8- | C4 C4 B,8- | B,2 x14 | x16 | x16 | x16 | x16 | x16 | x16 | x16 | x16 | %79
 x8 A,8 | x16 | G,8- G,2 z2 z4 | x16 | x16 | x16 | x16 |] %86
V:8
 x4 | x16 | x16 | x16 | x16 | x16 | x16 | x16 | x16 | x16 | x16 | x16 | x16 | x16 | x16 | x16 | %16
 x16 | x16 | x16 | x16 | x16 | x16 | x16 | x16 | x16 | x16 | x16 | x16 | x16 | x16 | x16 | x16 | %32
 x16 | x16 | =F12 E4 | x16 | x16 | x16 | x16 | x16 | x16 ||[K:G] x16 | x16 | x16 | x16 | x16 | %46
 x16 | x16 | x16 | x16 | x16 | x16 | x16 | x16 | x16 | x16 ||[K:E] x16 | x16 | x16 | x16 | x16 | %61
 x16 | x16 | x16 | x16 | x16 | x16 | x16 | x16 | x16 | x16 | x16 | x16 | x16 | x16 | x16 | x16 | %77
 x16 | x16 | x16 | x16 | x16 | x16 | x16 | x16 | x16 |] %86

